assets/svg/like-o.svg

<?xml version="1.0" encoding="UTF-8"?>
<svg width="1000px" height="1000px" viewBox="0 0 1000 1000" version="1.1" xmlns="http://www.w3.org/2000/svg" xmlns:xlink="http://www.w3.org/1999/xlink">
    <!-- Generator: sketchtool 52.4 (67378) - http://www.bohemiancoding.com/sketch -->
    <title>like-o</title>
    <desc>Created with sketchtool.</desc>
    <g id="新版图标" stroke="none" stroke-width="1" fill="none" fill-rule="evenodd">
        <g id="like-o" fill="#323233" fill-rule="nonzero">
            <g id="圆角-喜欢-线">
                <path d="M407.368136,765.882698 L500.11921,864.780343 L833.338255,511.563342 C909.756401,430.559003 907.90557,303.471357 829.160932,224.726719 C751.696464,147.262251 626.101747,147.262251 548.637278,224.726719 L499.591936,273.772061 L450.557621,224.737746 C373.141912,147.322037 247.626248,147.322037 170.210539,224.737746 C91.5807111,303.367574 89.8278427,430.300496 166.256439,511.071589 L407.368136,765.882698 Z M489.841331,185.454036 L499.591936,195.204641 L509.353568,185.443009 C608.51383,86.2827471 769.28438,86.2827471 868.444642,185.443009 C968.439599,285.437966 970.789902,446.821955 873.749273,549.686424 L540.530228,902.903425 C539.752585,903.727738 538.949901,904.528065 538.123305,905.303281 C515.743105,926.292363 480.585354,925.164639 459.596272,902.784438 L367.014643,804.066666 L125.902946,549.255557 C28.7965783,446.631828 31.0236855,285.357179 130.926829,185.454036 C230.038332,86.3425327 390.729828,86.3425327 489.841331,185.454036 Z" id="Combined-Shape"></path>
            </g>
        </g>
    </g>
</svg>

<svg width="1000" height="1000" xmlns="http://www.w3.org/2000/svg"><path d="M407.368 765.883l92.751 98.897 333.22-353.217c76.417-81.004 74.567-208.092-4.178-286.836-77.465-77.465-203.06-77.465-280.524 0l-49.045 49.045-49.034-49.034c-77.416-77.416-202.932-77.416-280.347 0-78.63 78.63-80.383 205.562-3.955 286.334l241.112 254.81zm82.473-580.429l9.75 9.75 9.763-9.761c99.16-99.16 259.93-99.16 359.09 0 99.996 99.995 102.346 261.379 5.305 364.243L540.53 902.903a55.555 55.555 0 0 1-2.407 2.4c-22.38 20.99-57.538 19.862-78.527-2.519l-92.581-98.717-241.112-254.811c-97.106-102.624-94.88-263.899 5.024-363.802 99.111-99.111 259.803-99.111 358.914 0z" fill="#323233" fill-rule="nonzero"/></svg>
